img/icons/mail.svg

<svg width="17" height="14" viewBox="0 0 17 14" fill="none" xmlns="http://www.w3.org/2000/svg">
<path fill-rule="evenodd" clip-rule="evenodd" d="M8.44512 5.20036L3.51953 0.933838H13.2617L8.44512 5.20036ZM8.44512 7.20036L1.61947 1.07983C0.883237 1.37498 0.363281 2.09524 0.363281 2.93695V11.0661C0.363281 12.1707 1.25871 13.0661 2.36328 13.0661H14.3633C15.4679 13.0661 16.3633 12.1707 16.3633 11.0661V2.93695C16.3633 2.10667 15.8573 1.39456 15.137 1.09209L8.44512 7.20036Z" fill="#409AFF"/>
</svg>

<svg width="17" height="14" fill="none" xmlns="http://www.w3.org/2000/svg"><path fill-rule="evenodd" clip-rule="evenodd" d="M8.445 5.2L3.52.934h9.742L8.445 5.2zm0 2L1.62 1.08A2 2 0 00.363 2.937v8.13a2 2 0 002 2h12a2 2 0 002-2v-8.13a2 2 0 00-1.226-1.845L8.445 7.2z" fill="#409AFF"/></svg>
